assets/img/icons/icons--print-hover.svg

<?xml version="1.0" encoding="UTF-8"?>
<svg width="24px" height="24px" viewBox="0 0 24 24" version="1.1" xmlns="http://www.w3.org/2000/svg" xmlns:xlink="http://www.w3.org/1999/xlink">
    <!-- Generator: Sketch 51.1 (57501) - http://www.bohemiancoding.com/sketch -->
    <title>icons--print</title>
    <desc>Created with Sketch.</desc>
    <defs></defs>
    <g id="icons--print" stroke="none" stroke-width="1" fill="none" fill-rule="evenodd">
        <path d="M19,8 L5,8 C3.34,8 2,9.23692308 2,10.7692308 L2,16.3076923 L6,16.3076923 L6,20 L18,20 L18,16.3076923 L22,16.3076923 L22,10.7692308 C22,9.23692308 20.66,8 19,8 Z M16,18 L8,18 L8,13 L16,13 L16,18 Z M19,12 C18.45,12 18,11.55 18,11 C18,10.45 18.45,10 19,10 C19.55,10 20,10.45 20,11 C20,11.55 19.55,12 19,12 Z M18,4 L6,4 L6,7 L18,7 L18,4 Z" id="Shape" fill="#033E58" fill-rule="nonzero"></path>
    </g>
</svg>

<svg width="24" height="24" xmlns="http://www.w3.org/2000/svg"><path d="M19 8H5c-1.66 0-3 1.24-3 2.77v5.54h4V20h12v-3.7h4v-5.53C22 9.24 20.66 8 19 8zm-3 10H8v-5h8v5zm3-6a1 1 0 0 1-1-1 1 1 0 0 1 1-1 1 1 0 0 1 1 1 1 1 0 0 1-1 1zm-1-8H6v3h12V4z" fill="#033E58" fill-rule="nonzero"/></svg>
